X:1
T:Immortal, Invisible, God Only Wise
T:Immortal, Invisible, God Only Wise
T:John Roberts, 1839
T:Walter Chalmers Smith, 1876
T:Public Domain Courtesy of the Cyber Hymnal™
T:Public Domain Courtesy of the Cyber Hymnal™
C:John Roberts, 1839
Z:Public Domain
Z:Courtesy of the Cyber Hymnal™
%%score ( 1 2 ) ( 3 4 )
L:1/8
Q:1/4=115
M:3/4
K:Ab
V:1 treble 
V:2 treble 
V:3 bass 
V:4 bass 
V:1
 [EA]2 | [DF]2 D2 [FB]2 | [EG]2 E2 [CA]2 | [Ec]2 [Ec]2 B2 | [CA]4 [EA]2 | [DF]2 D2 [FB]2 | %6
w: 1.~Im-|mor- tal, in-|vi- si- ble,|God on- ly|wise, In|light in- ac-|
w: 2.~Un-|rest- ing, un-|hast- ing, and|si- lent as|light, Nor|want- ing, nor|
w: 3.~To|all, life Thou|giv- est, to|both great and|small; In|all life Thou|
w: 4.~Great|Fa- ther of|glo- ry, pure|Fa- ther of|light, Thine|an- gels a-|
w: 5.~All|laud we would|ren- der; O|help us to|see ’Tis|on- ly the|
 [EG]2 E2 [CA]2 | [Ec]2 [Ec]2 B2 | [CA]4 [EA]2 | [Ac]2 [Ac]2 [Be]2 | [Ec]2 [EA]2 [EA]2 | %11
w: cess- i- ble|hid from our|eyes, Most|bless- èd, most|glor- ious, the|
w: wast- ing, Thou|rul- est in|might; Thy|jus- tice, like|mount- ains, high|
w: liv- est, the|true life of|all; We|bloss- om and|flour- ish as|
w: dore Thee, all|veil- ing their|sight; Of|all Thy rich|grac- es this|
w: splen- dor of|light hid- eth|Thee, And|so let Thy|glo- ry, Al-|
 [Ec]2 [Fc]2 [Ee]2 | [EB]4 [Ec]2 | [FA]2 [DF]2 [FB]2 | [EG]2 E2 [CA]2 | [Ec]2 [Ac]2 [GB]2 | A4 |] %17
w: An- cient of|Days, Al-|migh- ty, vic-|tor- ious, Thy|great Name we|praise.|
w: soar- ing a-|bove Thy|clouds, which are|fount- ains of|good- ness and|love.|
w: leaves on the|tree, And|wi- ther and|per- ish— but|naught chang- eth|Thee.|
w: grace, Lord, im-|part Take|veil from our|fac- es, the|vile from our|heart.|
w: migh- ty, im-|part, Through|Christ in His|sto- ry, Thy|Christ to the|heart.|
V:2
 x2 | x2 D2 x2 | x2 E2 x2 | x4 (ED) | x6 | x2 D2 x2 | x2 E2 x2 | x4 (ED) | x6 | x6 | x6 | x6 | x6 | %13
 x6 | x2 E2 x2 | x6 | A4 |] %17
V:3
 [A,,C]2 | [D,A,]2 [D,F,]2 [B,,D]2 | [E,B,]2 [E,G,]2 [F,A,]2 | [E,A,]2 [E,A,]2 [E,G,]2 | %4
 [A,,A,]4 [A,,C]2 | [D,A,]2 [D,F,]2 [B,,D]2 | [E,B,]2 [E,G,]2 [F,A,]2 | [E,A,]2 [E,A,]2 [E,G,]2 | %8
 [A,,A,]4 [A,,C]2 | [A,E]2 [A,E]2 [G,B,]2 | [A,C]2 [A,C]2 ([CE][B,D]) | [A,C]2 [F,A,]2 A,2 | %12
 [E,G,]4 [A,,A,]2 | [D,A,]2 [D,A,]2 [B,,D]2 | [E,B,]2 [E,G,]2 [F,A,]2 | [E,A,]2 [E,E]2 (ED) | %16
 [A,,C]4 |] %17
V:4
 x2 | x6 | x6 | x6 | x6 | x6 | x6 | x6 | x6 | x6 | x6 | x4 (C,D,) | x6 | x6 | x6 | x4 E,2 | x4 |] %17

